X:1
T: Dusty Bob's
C: J-28
M: 6/8
Z:
R: jig
K: G
D| "G"G2G GAB| "D"A2A ABc| "G"d2B "Am"c2A| "G"B2G "D"AFE|
   "G"G2G GAB| "D"A2A ABc| "G"dBG "D"cAF| "G"G3 G2:|
\
d| "G"g2g gag| "D"f2f fgf| "C"e2d efg| "D"a2g fed|
   "G"g2g gag| "D"f2f fgf| "C"efg "D"fga| "G"g3 g2d|
   "G"g2g gag| "D"f2f fgf| "C"e2d efg| "D"a2g fed|
   "G"g3 Bcd| "C"e3 ABc| "G"dcB "D"AGF| "G"G3 G2|]
%
